X:167
T:Bimington (missing image). PFD3.167
B:Playford, Dancing Master Vol 3, 2nd Ed, c1726
T:Linco,aka. PFD3.167
W:Longways for as many as will
N:Index says Bimington but points to image of LINCO from vol 2
M:C|
L:1/8
Z:village music project. Peter Dunk 2015
Q:1/2=100
K:Gm
GA|B2G2 G2^fg|agab a2d2|g2c2 f2B2|edcB A2dc|B2G2 G2^fg|
agab a2d2|B2g2 A2d2|^FE F2G2::de|f2f2 f4|fefg f2cB|
ABcB ABcB|ABAG ^F2 de|f2f2 f4|g^fga g2dc|BABG A2^F2|G6:|
W:
W:Note: Each Strain is to be Play'd twice. (Repeat marks added for clarity)
W:
W:The first Cu. cross over, Figure inn, and cast off into the 2d Cu. Place .| First man cross over
W:with the 2d Wo. and the 2d man with the 1st Wo. all four turn single quick, and go over into
W:their own place |: Then all four clap Hands three times, the 1st Cu. cast off, clap Hands, and
W:turn your Partner .|Lead thro' the 2d. Cu. then cast off and turn Hands |:

